X: 37679
T: Snuff Wife, The
R: jig
M: 6/8
K: Amixolydian
|:B/c/dc BGB|BGB BGB|B/c/dc BGB|ABA c2A|
B/c/dc BGB|BGB Bcd|~e3 cBc|1 ABA cBA:|2 ABA c2A||
|:Bcd ded|Bcd efd|c3 BcB|~A3 cBA|
Bcd dcd|Bc/B/A Bcd|~e3 cBc|1 ABA cBA:|2 ABA c2f||
|:eAA eAA|eAA eAe|~f3 efe|dcd fed|
eAA egf|efd efg|agf gec|1 dfe fed:|2 d2e fed||
|:efg gfg|ega bag|f3 efe|dcd fed|
efg gfg|efd efg|agf gec|1 dfe fed:|2 d2e fed||

